static/assets/images/icons/mask.svg

<svg width="256" height="256" viewBox="0 0 256 256" fill="none" xmlns="http://www.w3.org/2000/svg">
<path fill-rule="evenodd" clip-rule="evenodd" d="M131.913 228C131.913 228 215.51 194.683 215.51 124.728V57.1948C189.769 42.4467 147.256 28 128.243 28C109.229 28 65.839 42.056 40 57.1948V124.728C40 194.683 123.59 228 123.59 228L118.005 191.702H137.506L131.913 228ZM83.2657 168.034H116.697L127.841 157.833L138.985 168.034H172.416L187.915 133.498L161.272 151.76H150.128L132.592 140.576H123.081L105.553 151.76H94.4095L67.7663 133.498L83.2657 168.034ZM139.581 107.21C139.581 107.21 151.408 91.9175 169.147 91.9175C186.887 91.9175 198.713 102.894 198.713 102.894L139.581 107.21ZM86.3628 91.9175C68.6233 91.9175 56.7969 102.894 56.7969 102.894L115.929 107.21C115.929 107.21 104.102 91.9175 86.3628 91.9175Z" fill="black"/>
</svg>

<svg xmlns="http://www.w3.org/2000/svg" fill="none" viewBox="0 0 256 256"><path fill="#000" fill-rule="evenodd" d="M131.913 228s83.597-33.317 83.597-103.272V57.195C189.769 42.447 147.256 28 128.243 28 109.229 28 65.839 42.056 40 57.195v67.533C40 194.683 123.59 228 123.59 228l-5.585-36.298h19.501zm-48.647-59.966h33.431l11.144-10.201 11.144 10.201h33.431l15.499-34.536-26.643 18.262h-11.144l-17.536-11.184h-9.511l-17.528 11.184H94.409l-26.643-18.262zm56.315-60.824s11.827-15.292 29.566-15.292c17.74 0 29.566 10.976 29.566 10.976zM86.363 91.918c-17.74 0-29.566 10.976-29.566 10.976l59.132 4.316s-11.827-15.292-29.566-15.292" clip-rule="evenodd"/></svg>
